X: 21899
T: Kissing Is The Best Of A'
R: reel
M: 4/4
K: Adorian
d|cAAc AAAd|cAAc aAed|cAAc AAAd|BGGB d2cB:|
c/d/e eg aefd|c/d/e eg a2ae|c/d/e eg aefd|BGGB d2 cB|
c/d/e eg aefd|c/d/e eg a2ea|faea daca|BGGB d2cB||

